svg/emoji_u1f956.svg

<svg xmlns="http://www.w3.org/2000/svg" xmlns:xlink="http://www.w3.org/1999/xlink" viewBox="0 0 128 128" width="512px" height="512px"><path d="M-620.55-526.55c-16-10.5-33.21-17.09-53.22-16.72 14.17-5.73 49.62 5.24 53.22 16.72zm-91.78-92.85c10.54 5.95 21.9 35.18 17.49 51.9-1.59-7.86-2.63-17.3-5.54-26.11-2.87-8.66-7.64-16.69-11.95-25.79zm42.08 48.71c12.39-12.2 24.78-24.41 37.18-36.61.49.49.98.99 1.47 1.48-12.35 12.27-24.7 24.53-37.06 36.8-.53-.55-1.06-1.11-1.59-1.67z" fill="#fff"/><defs><path id="a" d="M-.37 0H128v128H-.37z"/></defs><clipPath id="b"><use xlink:href="#a" overflow="visible"/></clipPath><g clip-path="url(#b)"><path d="M16.19 154.13c-8.06 6.02-16.21 3.36-18.17-5.17-1.92-8.37 1.25-16.48 4.29-25.19 6.84-19.61 31.37-83.68 40.81-102.68 2.48-4.99 6.3-10.39 12.71-12.56 4.56-1.54 9.83.11 11.96 4.12 1.88 3.54 2.9 9.96 1.46 14.27-7.11 21.4-31.18 83.68-39.43 104.75-2.96 7.3-7.23 17.09-13.63 22.46z" fill="#c47930"/><path d="M14.91 131.13c4.28 5.11 4.67 13.84 3.42 15.22-1.25 1.38-3.66-5.12-7.94-10.23s-4.67-13.84-3.42-15.22c1.25-1.37 3.67 5.12 7.94 10.23zm7.99-20.06c4.28 5.11 4.67 13.84 3.42 15.22-1.25 1.38-3.66-5.12-7.94-10.23s-4.67-13.84-3.42-15.22c1.24-1.38 3.66 5.12 7.94 10.23zM30.88 91c4.28 5.11 4.67 13.84 3.42 15.22-1.25 1.38-3.66-5.12-7.94-10.23s-4.67-13.84-3.42-15.22c1.25-1.37 3.66 5.12 7.94 10.23zm7.98-20.06c4.28 5.11 4.67 13.84 3.42 15.22-1.25 1.38-3.66-5.12-7.94-10.23s-4.67-13.84-3.42-15.22 3.67 5.12 7.94 10.23zm7.99-20.06c4.28 5.11 4.67 13.84 3.42 15.22-1.25 1.38-3.66-5.12-7.94-10.23s-4.67-13.84-3.42-15.22 3.66 5.12 7.94 10.23zm7.98-20.07c4.28 5.11 4.67 13.84 3.42 15.22s-3.66-5.12-7.94-10.23-4.67-13.84-3.42-15.22c1.25-1.37 3.66 5.12 7.94 10.23z" fill="#fbc21a"/></g><g opacity=".7" clip-path="url(#b)"><path d="M16.19 154.13c6.4-5.37 10.67-15.15 13.62-22.45 4.56-11.65 21.96-57.25 30.65-80.21-18.85 25.3-46.82 74.47-55.16 86.68-2.54 3.72-6.31 13.81-5.58 14.94 3.3 5.08 9.91 5.93 16.47 1.04z" fill="#a86229"/></g><g clip-path="url(#b)"><path d="M14.25 186.98c-11.5 4.78-20.25-.82-19.72-11.6.51-10.57 6.95-19.3 13.42-28.78 14.59-21.36 64.81-90.52 82.27-110.38 4.59-5.22 10.89-10.51 19.17-11.19 5.9-.48 11.57 3.06 12.74 8.49 1.04 4.79.11 12.75-3.01 17.47-15.5 23.42-64.59 90.57-81.33 113.26-5.92 7.83-14.2 18.23-23.54 22.73z" fill="#c47930"/><path d="M20.38 159.16c3.35 7.38.92 17.91-1.01 19.19s-2.62-7.2-5.97-14.58-.92-17.91 1.01-19.19 2.62 7.2 5.97 14.58zm16.09-21.57c3.35 7.38.92 17.91-1.01 19.19s-2.62-7.2-5.97-14.58-.92-17.91 1.01-19.19c1.92-1.27 2.61 7.2 5.97 14.58zm16.08-21.56c3.35 7.38.92 17.91-1.01 19.19-1.93 1.27-2.62-7.2-5.97-14.58s-.92-17.91 1.01-19.19c1.93-1.27 2.62 7.2 5.97 14.58zm16.09-21.57c3.35 7.38.92 17.91-1.01 19.19-1.93 1.27-2.62-7.2-5.97-14.58-3.35-7.38-.92-17.91 1.01-19.19 1.92-1.27 2.62 7.2 5.97 14.58zM84.72 72.9c3.35 7.38.92 17.91-1.01 19.19-1.93 1.27-2.62-7.2-5.97-14.58-3.35-7.38-.92-17.91 1.01-19.19 1.93-1.27 2.62 7.2 5.97 14.58zm16.09-21.57c3.35 7.38.92 17.91-1.01 19.19-1.93 1.27-2.62-7.2-5.97-14.58s-.92-17.91 1.01-19.19c1.92-1.27 2.62 7.2 5.97 14.58z" fill="#fbc21a"/></g></svg>

<?xml version="1.0" encoding="utf-8"?>
<!-- Generator: Adobe Illustrator 19.2.1, SVG Export Plug-In . SVG Version: 6.00 Build 0)  -->
<svg version="1.1" id="レイヤー_1" xmlns="http://www.w3.org/2000/svg" xmlns:xlink="http://www.w3.org/1999/xlink" x="0px"
	 y="0px" viewBox="0 0 128 128" style="enable-background:new 0 0 128 128;" xml:space="preserve">
<path style="fill:#FFFFFF;" d="M-620.55-526.55c-16-10.5-33.21-17.09-53.22-16.72C-659.6-549-624.15-538.03-620.55-526.55z"/>
<path style="fill:#FFFFFF;" d="M-712.33-619.4c10.54,5.95,21.9,35.18,17.49,51.9c-1.59-7.86-2.63-17.3-5.54-26.11
	C-703.25-602.27-708.02-610.3-712.33-619.4z"/>
<path style="fill:#FFFFFF;" d="M-670.25-570.69c12.39-12.2,24.78-24.41,37.18-36.61c0.49,0.49,0.98,0.99,1.47,1.48
	c-12.35,12.27-24.7,24.53-37.06,36.8C-669.19-569.57-669.72-570.13-670.25-570.69z"/>
<g>
	<defs>
		<rect id="SVGID_1_" x="-0.37" width="128.37" height="128"/>
	</defs>
	<clipPath id="SVGID_2_">
		<use xlink:href="#SVGID_1_"  style="overflow:visible;"/>
	</clipPath>
	<g style="clip-path:url(#SVGID_2_);">
		<g id="lpZKsz_4_">
			<g>
				<path style="fill:#C47930;" d="M16.19,154.13c-8.06,6.02-16.21,3.36-18.17-5.17c-1.92-8.37,1.25-16.48,4.29-25.19
					c6.84-19.61,31.37-83.68,40.81-102.68C45.6,16.1,49.42,10.7,55.83,8.53c4.56-1.54,9.83,0.11,11.96,4.12
					c1.88,3.54,2.9,9.96,1.46,14.27c-7.11,21.4-31.18,83.68-39.43,104.75C26.86,138.97,22.59,148.76,16.19,154.13z"/>
			</g>
		</g>
		<path style="fill:#FBC21A;" d="M14.91,131.13c4.28,5.11,4.67,13.84,3.42,15.22c-1.25,1.38-3.66-5.12-7.94-10.23
			s-4.67-13.84-3.42-15.22C8.22,119.53,10.64,126.02,14.91,131.13z"/>
		<path style="fill:#FBC21A;" d="M22.9,111.07c4.28,5.11,4.67,13.84,3.42,15.22c-1.25,1.38-3.66-5.12-7.94-10.23
			c-4.28-5.11-4.67-13.84-3.42-15.22C16.2,99.46,18.62,105.96,22.9,111.07z"/>
		<path style="fill:#FBC21A;" d="M30.88,91c4.28,5.11,4.67,13.84,3.42,15.22c-1.25,1.38-3.66-5.12-7.94-10.23
			s-4.67-13.84-3.42-15.22C24.19,79.4,26.6,85.89,30.88,91z"/>
		<path style="fill:#FBC21A;" d="M38.86,70.94c4.28,5.11,4.67,13.84,3.42,15.22c-1.25,1.38-3.66-5.12-7.94-10.23
			c-4.28-5.11-4.67-13.84-3.42-15.22S34.59,65.83,38.86,70.94z"/>
		<path style="fill:#FBC21A;" d="M46.85,50.88c4.28,5.11,4.67,13.84,3.42,15.22c-1.25,1.38-3.66-5.12-7.94-10.23
			s-4.67-13.84-3.42-15.22S42.57,45.77,46.85,50.88z"/>
		<path style="fill:#FBC21A;" d="M54.83,30.81c4.28,5.11,4.67,13.84,3.42,15.22s-3.66-5.12-7.94-10.23s-4.67-13.84-3.42-15.22
			C48.14,19.21,50.55,25.7,54.83,30.81z"/>
	</g>
	<g style="opacity:0.7;clip-path:url(#SVGID_2_);">
		<path style="fill:#A86229;" d="M16.19,154.13c6.4-5.37,10.67-15.15,13.62-22.45c4.56-11.65,21.96-57.25,30.65-80.21
			c-18.85,25.3-46.82,74.47-55.16,86.68c-2.54,3.72-6.31,13.81-5.58,14.94C3.02,158.17,9.63,159.02,16.19,154.13z"/>
	</g>
	<g style="clip-path:url(#SVGID_2_);">
		<g id="lpZKsz_3_">
			<g>
				<path style="fill:#C47930;" d="M14.25,186.98C2.75,191.76-6,186.16-5.47,175.38c0.51-10.57,6.95-19.3,13.42-28.78
					c14.59-21.36,64.81-90.52,82.27-110.38c4.59-5.22,10.89-10.51,19.17-11.19c5.9-0.48,11.57,3.06,12.74,8.49
					c1.04,4.79,0.11,12.75-3.01,17.47c-15.5,23.42-64.59,90.57-81.33,113.26C31.87,172.08,23.59,182.48,14.25,186.98z"/>
			</g>
		</g>
		<path style="fill:#FBC21A;" d="M20.38,159.16c3.35,7.38,0.92,17.91-1.01,19.19s-2.62-7.2-5.97-14.58s-0.92-17.91,1.01-19.19
			S17.03,151.78,20.38,159.16z"/>
		<path style="fill:#FBC21A;" d="M36.47,137.59c3.35,7.38,0.92,17.91-1.01,19.19s-2.62-7.2-5.97-14.58s-0.92-17.91,1.01-19.19
			C32.42,121.74,33.11,130.21,36.47,137.59z"/>
		<path style="fill:#FBC21A;" d="M52.55,116.03c3.35,7.38,0.92,17.91-1.01,19.19c-1.93,1.27-2.62-7.2-5.97-14.58
			s-0.92-17.91,1.01-19.19C48.51,100.18,49.2,108.65,52.55,116.03z"/>
		<path style="fill:#FBC21A;" d="M68.64,94.46c3.35,7.38,0.92,17.91-1.01,19.19c-1.93,1.27-2.62-7.2-5.97-14.58
			c-3.35-7.38-0.92-17.91,1.01-19.19C64.59,78.61,65.29,87.08,68.64,94.46z"/>
		<path style="fill:#FBC21A;" d="M84.72,72.9c3.35,7.38,0.92,17.91-1.01,19.19c-1.93,1.27-2.62-7.2-5.97-14.58
			c-3.35-7.38-0.92-17.91,1.01-19.19C80.68,57.05,81.37,65.52,84.72,72.9z"/>
		<path style="fill:#FBC21A;" d="M100.81,51.33c3.35,7.38,0.92,17.91-1.01,19.19c-1.93,1.27-2.62-7.2-5.97-14.58
			s-0.92-17.91,1.01-19.19C96.76,35.48,97.46,43.95,100.81,51.33z"/>
	</g>
</g>
</svg>
